X: 929
T: John Carey's Daughter
R: hornpipe
%S: s:3 b:14(6+4+4)
B: Francis O'Neill: "The Dance Music of Ireland" (1907) #929
Z: Frank Nordberg - http://www.musicaviva.com
F: http://www.musicaviva.com/abc/tunes/ireland/oneill-1001/0929/oneill-1001-0929-1.abc
N: Compacted via repeats and multiple endings [JC]
M: C|
L: 1/8
K: D
"^A"|: A>G | F>d (3dcd f>d (3dcd | fdcd B2A>G |[1,3 F>d (3dcd f>d (3dcd | BGFG E2 :|[2,4 FdcB AFGE | F2D2 D2 :|
"^B"|: d2 | f>d (3dcd Bcde | fdcd  B2F2 | BABc  dcde | fdcd B2 ||
|      Bc | d>fed     cecA | B>dBG FAFD | E>DCD EFGA | F2D2 D2 :|
